X:252
T:Haste to the Wedding. JC.257
R:air
S:John Clare,Poet,Helpstone (1793-1864)
N:TS 2/4 in MS. Deacon gives the text to the song, and the tempo is
N:according to that,but it has to be said that I at least would find it
N:too high for singing in this key, and Clare probably had it as a dance
N:tune. CGP.
N:Song text exists. See Deacon.
O:England
A:Northamptonshire
Z:vmp.P. Headford
M:6/8
L:1/8
Q:3/8=120
K:D
A|\
AFG Agf|ede fdB|AFA BdF|EEE E” qu”B2|!
AFG Agf|ede fdB|AFA faf|ddd d2||!
” crot”a|afa afa|bgb bgb|afa agf|eee e3|!
a3″ crot”f3|ede fdB|AFA faf|ddd d2|]

